X:735
T: Rocks of Connemara
C: BB
R: reel
Q: 1/8=350
M: 4/4
L: 1/8
K: Dm
DE|"Dm"FDAG FDCA,|"Dm"DEFG "Am"Ac=Bc|"Dm"ed (3d^cd ad (3d^cd|"F"f2 ed "Am7"cAGE|
"Dm"FDAG AFDC|"Gm"DG (3G^FG "A"A^c=Bc|"Dm"AFGA "Am7"cAGE|"Dm7"DCA,C "Dm"D2 :|
DE|"F"F2 cF dFcF|"Gm"BAGB "A"A^cec|"Dm"fd (3d^cd ad (3d^cd|"C"c=Bce "Dm"dcAG|
"F"F2 DE FGAB|"C"c2 eg "Am"agfe|"Dm"d3 e f2 ed|"Am7"cAGE "Dm"D2 :|
%%%%%%%%%%%%%%%%%%%%%%%%%%%%%%%%%%%%%%%%%%%
